webroot/img/shop/pierogi.svg

<?xml version="1.0" encoding="UTF-8"?><svg id="b" xmlns="http://www.w3.org/2000/svg" viewBox="0 0 256 256"><path d="M30.03,235.54c-2.43-6.87-4.87-31.06,7.1-46.06,14.89-18.67,9.81-34.95,32.17-43.47,26.5-10.1,39.06-19.93,66.09-17.2,13.77,3.17,23,.72,35.4,3.25,8.12,1.67,20.52,9.46,30.91,18.84,4.95,4.47,12.59,3.27,19.23,11.71,4.88,6.19,9.34,14.79,12.32,27.54,2.27,9.72,12.88,29.26,6.77,46.11-.41,1.11-.9,2.17-2.08,2.17-10.74.14-60.09.7-102.92-.36-42.83.76-92.17-.12-102.92-.34-1.19-.01-1.67-1.07-2.07-2.19Z" style="fill:#fff0c0; stroke-width:0px;"/><path d="M135.39,128.81c-27.03-2.73-39.59,7.1-66.09,17.2-22.36,8.52-17.28,24.8-32.17,43.47-11.97,15-9.53,39.2-7.1,46.06.4,1.11.88,2.17,2.07,2.19,10.75.22,60.09,1.1,102.92.34,42.83,1.06,92.18.5,102.92.36,1.19,0,1.68-1.06,2.08-2.17,6.11-16.85-4.5-36.39-6.77-46.11-2.98-12.75-7.44-21.36-12.32-27.54-6.64-8.44-14.28-7.23-19.23-11.71-10.39-9.38-22.79-17.17-30.91-18.84-12.39-2.53-21.63-.08-35.4-3.25Z" style="fill:none; stroke:#18181b; stroke-miterlimit:10; stroke-width:9px;"/><line x1="56.37" y1="226.63" x2="38.06" y2="226.63" style="fill:none; stroke:#f9cf58; stroke-linecap:round; stroke-miterlimit:10; stroke-width:8px;"/><line x1="58.07" y1="217.32" x2="38.08" y2="215.73" style="fill:none; stroke:#f9cf58; stroke-linecap:round; stroke-miterlimit:10; stroke-width:8px;"/><line x1="113.13" y1="155.22" x2="109.33" y2="141.02" style="fill:none; stroke:#f9cf58; stroke-linecap:round; stroke-miterlimit:10; stroke-width:8px;"/><line x1="123.18" y1="153.55" x2="120.74" y2="139.13" style="fill:none; stroke:#f9cf58; stroke-linecap:round; stroke-miterlimit:10; stroke-width:8px;"/><line x1="83.55" y1="150.64" x2="93.22" y2="164.84" style="fill:none; stroke:#f9cf58; stroke-linecap:round; stroke-miterlimit:10; stroke-width:8px;"/><line x1="75.16" y1="156.63" x2="85.66" y2="171.14" style="fill:none; stroke:#f9cf58; stroke-linecap:round; stroke-miterlimit:10; stroke-width:8px;"/><line x1="56.68" y1="176.94" x2="67.71" y2="185.21" style="fill:none; stroke:#f9cf58; stroke-linecap:round; stroke-miterlimit:10; stroke-width:8px;"/><line x1="50.89" y1="186.1" x2="63.74" y2="193.69" style="fill:none; stroke:#f9cf58; stroke-linecap:round; stroke-miterlimit:10; stroke-width:8px;"/><line x1="210.69" y1="226.63" x2="228.99" y2="226.63" style="fill:none; stroke:#f9cf58; stroke-linecap:round; stroke-miterlimit:10; stroke-width:8px;"/><line x1="208.98" y1="217.32" x2="228.97" y2="215.73" style="fill:none; stroke:#f9cf58; stroke-linecap:round; stroke-miterlimit:10; stroke-width:8px;"/><line x1="153.93" y1="155.22" x2="157.72" y2="141.02" style="fill:none; stroke:#f9cf58; stroke-linecap:round; stroke-miterlimit:10; stroke-width:8px;"/><line x1="143.87" y1="153.55" x2="146.31" y2="139.13" style="fill:none; stroke:#f9cf58; stroke-linecap:round; stroke-miterlimit:10; stroke-width:8px;"/><line x1="183.5" y1="150.64" x2="173.83" y2="164.84" style="fill:none; stroke:#f9cf58; stroke-linecap:round; stroke-miterlimit:10; stroke-width:8px;"/><line x1="191.9" y1="156.63" x2="181.4" y2="171.14" style="fill:none; stroke:#f9cf58; stroke-linecap:round; stroke-miterlimit:10; stroke-width:8px;"/><line x1="210.38" y1="176.94" x2="199.35" y2="185.21" style="fill:none; stroke:#f9cf58; stroke-linecap:round; stroke-miterlimit:10; stroke-width:8px;"/><line x1="216.16" y1="186.1" x2="203.32" y2="193.69" style="fill:none; stroke:#f9cf58; stroke-linecap:round; stroke-miterlimit:10; stroke-width:8px;"/><path d="M149.46,214.9c0,5.94-5.42,10.76-12.11,10.76s-12.11-4.82-12.11-10.76" style="fill:none; stroke:#18181b; stroke-linecap:round; stroke-miterlimit:10; stroke-width:8px;"/><circle cx="102.76" cy="201.53" r="6.83" style="fill:#18181b; stroke-width:0px;"/><circle cx="167.16" cy="201.53" r="6.83" style="fill:#18181b; stroke-width:0px;"/><path d="M21.02,165.57c-3.88-6.18-11.52-29.26-3.13-46.5,10.46-21.47,1.97-36.25,21.92-49.45,23.66-15.63,33.78-27.96,60.76-31.19,14.12.09,22.6-4.32,35.25-4.54,8.28-.15,22.07,4.75,34.26,11.64,5.81,3.28,13,.45,21.33,7.22,6.1,4.98,12.33,12.41,18.02,24.21,4.34,8.98,18.97,25.75,16.68,43.52-.15,1.17-.4,2.3-1.56,2.57-10.46,2.48-58.49,13.77-100.52,22.09-41.64,10.08-89.98,19.98-100.52,22.11-1.16.23-1.86-.68-2.49-1.68Z" style="fill:#fff0c0; stroke-width:0px;"/><path d="M100.57,38.44c-26.98,3.23-37.1,15.57-60.76,31.19-19.95,13.19-11.45,27.98-21.92,49.45-8.4,17.24-.76,40.32,3.13,46.5.63,1,1.33,1.92,2.49,1.68,10.54-2.13,58.87-12.03,100.52-22.11,42.03-8.32,90.06-19.6,100.52-22.09,1.15-.28,1.4-1.4,1.56-2.57,2.29-17.77-12.34-34.54-16.68-43.52-5.69-11.79-11.92-19.23-18.02-24.21-8.33-6.77-15.51-3.94-21.33-7.22-12.19-6.9-25.99-11.8-34.26-11.64-12.65.22-21.14,4.64-35.25,4.54Z" style="fill:none; stroke:#18181b; stroke-miterlimit:10; stroke-width:9px;"/><line x1="44.77" y1="151.13" x2="26.91" y2="155.12" style="fill:none; stroke:#f9cf58; stroke-linecap:round; stroke-miterlimit:10; stroke-width:8px;"/><line x1="44.41" y1="141.68" x2="24.55" y2="144.48" style="fill:none; stroke:#f9cf58; stroke-linecap:round; stroke-miterlimit:10; stroke-width:8px;"/><line x1="84.59" y1="69.06" x2="77.8" y2="56.03" style="fill:none; stroke:#f9cf58; stroke-linecap:round; stroke-miterlimit:10; stroke-width:8px;"/><line x1="94.05" y1="65.24" x2="88.52" y2="51.7" style="fill:none; stroke:#f9cf58; stroke-linecap:round; stroke-miterlimit:10; stroke-width:8px;"/><line x1="54.73" y1="71.04" x2="67.27" y2="82.79" style="fill:none; stroke:#f9cf58; stroke-linecap:round; stroke-miterlimit:10; stroke-width:8px;"/><line x1="47.85" y1="78.72" x2="61.26" y2="90.59" style="fill:none; stroke:#f9cf58; stroke-linecap:round; stroke-miterlimit:10; stroke-width:8px;"/><line x1="34.24" y1="102.57" x2="46.81" y2="108.24" style="fill:none; stroke:#f9cf58; stroke-linecap:round; stroke-miterlimit:10; stroke-width:8px;"/><line x1="30.59" y1="112.77" x2="44.78" y2="117.38" style="fill:none; stroke:#f9cf58; stroke-linecap:round; stroke-miterlimit:10; stroke-width:8px;"/><line x1="195.38" y1="117.48" x2="213.25" y2="113.49" style="fill:none; stroke:#f9cf58; stroke-linecap:round; stroke-miterlimit:10; stroke-width:8px;"/><line x1="191.69" y1="108.77" x2="210.85" y2="102.86" style="fill:none; stroke:#f9cf58; stroke-linecap:round; stroke-miterlimit:10; stroke-width:8px;"/><line x1="124.42" y1="60.17" x2="125.02" y2="45.48" style="fill:none; stroke:#f9cf58; stroke-linecap:round; stroke-miterlimit:10; stroke-width:8px;"/><line x1="114.24" y1="60.73" x2="113.47" y2="46.12" style="fill:none; stroke:#f9cf58; stroke-linecap:round; stroke-miterlimit:10; stroke-width:8px;"/><line x1="152.28" y1="49.25" x2="145.94" y2="65.21" style="fill:none; stroke:#f9cf58; stroke-linecap:round; stroke-miterlimit:10; stroke-width:8px;"/><line x1="161.78" y1="53.26" x2="154.69" y2="69.72" style="fill:none; stroke:#f9cf58; stroke-linecap:round; stroke-miterlimit:10; stroke-width:8px;"/><line x1="184.24" y1="69.06" x2="175.28" y2="79.54" style="fill:none; stroke:#f9cf58; stroke-linecap:round; stroke-miterlimit:10; stroke-width:8px;"/><line x1="191.89" y1="76.73" x2="181.01" y2="86.95" style="fill:none; stroke:#f9cf58; stroke-linecap:round; stroke-miterlimit:10; stroke-width:8px;"/><path d="M133.07,119.39c1.3,5.8-2.94,11.68-9.47,13.14s-12.86-2.06-14.16-7.86" style="fill:none; stroke:#18181b; stroke-linecap:round; stroke-miterlimit:10; stroke-width:8px;"/><circle cx="84.58" cy="116.52" r="6.83" style="fill:#18181b; stroke-width:0px;"/><circle cx="147.43" cy="102.48" r="6.83" style="fill:#18181b; stroke-width:0px;"/><path d="M133.27,33.89c-.75,1.95-3.6,8.44,6.98,14.56,10.83,6.26,48.47,24.37,60.6,13.09,19.67-18.3-8.22-63.22-20.08-42.16-8.17,14.52-39.03-1.7-47.49,14.52Z" style="fill:#fff; stroke:#18181b; stroke-miterlimit:10; stroke-width:9px;"/></svg>

<?xml version="1.0" encoding="UTF-8" standalone="no"?>
<!DOCTYPE svg PUBLIC "-//W3C//DTD SVG 1.1//EN" "http://www.w3.org/Graphics/SVG/1.1/DTD/svg11.dtd">
<svg width="100%" height="100%" viewBox="0 0 256 256" version="1.1" xmlns="http://www.w3.org/2000/svg" xmlns:xlink="http://www.w3.org/1999/xlink" xml:space="preserve" xmlns:serif="http://www.serif.com/" style="fill-rule:evenodd;clip-rule:evenodd;stroke-miterlimit:10;">
    <g id="a">
        <rect x="0" y="0" width="256" height="256" style="fill:rgb(250,250,250);"/>
    </g>
    <g>
        <path d="M30.03,235.54C27.6,228.67 25.16,204.48 37.13,189.48C52.02,170.81 46.94,154.53 69.3,146.01C95.8,135.91 108.36,126.08 135.39,128.81C149.16,131.98 158.39,129.53 170.79,132.06C178.91,133.73 191.31,141.52 201.7,150.9C206.65,155.37 214.29,154.17 220.93,162.61C225.81,168.8 230.27,177.4 233.25,190.15C235.52,199.87 246.13,219.41 240.02,236.26C239.61,237.37 239.12,238.43 237.94,238.43C227.2,238.57 177.85,239.13 135.02,238.07C92.19,238.83 42.85,237.95 32.1,237.73C30.91,237.72 30.43,236.66 30.03,235.54Z" style="fill:rgb(255,240,192);fill-rule:nonzero;"/>
        <path d="M135.39,128.81C108.36,126.08 95.8,135.91 69.3,146.01C46.94,154.53 52.02,170.81 37.13,189.48C25.16,204.48 27.6,228.68 30.03,235.54C30.43,236.65 30.91,237.71 32.1,237.73C42.85,237.95 92.19,238.83 135.02,238.07C177.85,239.13 227.2,238.57 237.94,238.43C239.13,238.43 239.62,237.37 240.02,236.26C246.13,219.41 235.52,199.87 233.25,190.15C230.27,177.4 225.81,168.79 220.93,162.61C214.29,154.17 206.65,155.38 201.7,150.9C191.31,141.52 178.91,133.73 170.79,132.06C158.4,129.53 149.16,131.98 135.39,128.81Z" style="fill:none;fill-rule:nonzero;stroke:rgb(24,24,27);stroke-width:9px;"/>
        <path d="M56.37,226.63L38.06,226.63" style="fill:none;fill-rule:nonzero;stroke:rgb(249,207,88);stroke-width:8px;stroke-linecap:round;"/>
        <path d="M58.07,217.32L38.08,215.73" style="fill:none;fill-rule:nonzero;stroke:rgb(249,207,88);stroke-width:8px;stroke-linecap:round;"/>
        <path d="M113.13,155.22L109.33,141.02" style="fill:none;fill-rule:nonzero;stroke:rgb(249,207,88);stroke-width:8px;stroke-linecap:round;"/>
        <path d="M123.18,153.55L120.74,139.13" style="fill:none;fill-rule:nonzero;stroke:rgb(249,207,88);stroke-width:8px;stroke-linecap:round;"/>
        <path d="M83.55,150.64L93.22,164.84" style="fill:none;fill-rule:nonzero;stroke:rgb(249,207,88);stroke-width:8px;stroke-linecap:round;"/>
        <path d="M75.16,156.63L85.66,171.14" style="fill:none;fill-rule:nonzero;stroke:rgb(249,207,88);stroke-width:8px;stroke-linecap:round;"/>
        <path d="M56.68,176.94L67.71,185.21" style="fill:none;fill-rule:nonzero;stroke:rgb(249,207,88);stroke-width:8px;stroke-linecap:round;"/>
        <path d="M50.89,186.1L63.74,193.69" style="fill:none;fill-rule:nonzero;stroke:rgb(249,207,88);stroke-width:8px;stroke-linecap:round;"/>
        <path d="M210.69,226.63L228.99,226.63" style="fill:none;fill-rule:nonzero;stroke:rgb(249,207,88);stroke-width:8px;stroke-linecap:round;"/>
        <path d="M208.98,217.32L228.97,215.73" style="fill:none;fill-rule:nonzero;stroke:rgb(249,207,88);stroke-width:8px;stroke-linecap:round;"/>
        <path d="M153.93,155.22L157.72,141.02" style="fill:none;fill-rule:nonzero;stroke:rgb(249,207,88);stroke-width:8px;stroke-linecap:round;"/>
        <path d="M143.87,153.55L146.31,139.13" style="fill:none;fill-rule:nonzero;stroke:rgb(249,207,88);stroke-width:8px;stroke-linecap:round;"/>
        <path d="M183.5,150.64L173.83,164.84" style="fill:none;fill-rule:nonzero;stroke:rgb(249,207,88);stroke-width:8px;stroke-linecap:round;"/>
        <path d="M191.9,156.63L181.4,171.14" style="fill:none;fill-rule:nonzero;stroke:rgb(249,207,88);stroke-width:8px;stroke-linecap:round;"/>
        <path d="M210.38,176.94L199.35,185.21" style="fill:none;fill-rule:nonzero;stroke:rgb(249,207,88);stroke-width:8px;stroke-linecap:round;"/>
        <path d="M216.16,186.1L203.32,193.69" style="fill:none;fill-rule:nonzero;stroke:rgb(249,207,88);stroke-width:8px;stroke-linecap:round;"/>
        <path d="M149.46,214.9C149.46,220.84 144.04,225.66 137.35,225.66C130.66,225.66 125.24,220.84 125.24,214.9" style="fill:none;fill-rule:nonzero;stroke:rgb(24,24,27);stroke-width:8px;stroke-linecap:round;"/>
        <circle cx="102.76" cy="201.53" r="6.83" style="fill:rgb(24,24,27);"/>
        <circle cx="167.16" cy="201.53" r="6.83" style="fill:rgb(24,24,27);"/>
        <path d="M21.02,165.57C17.14,159.39 9.5,136.31 17.89,119.07C28.35,97.6 19.86,82.82 39.81,69.62C63.47,53.99 73.59,41.66 100.57,38.43C114.69,38.52 123.17,34.11 135.82,33.89C144.1,33.74 157.89,38.64 170.08,45.53C175.89,48.81 183.08,45.98 191.41,52.75C197.51,57.73 203.74,65.16 209.43,76.96C213.77,85.94 228.4,102.71 226.11,120.48C225.96,121.65 225.71,122.78 224.55,123.05C214.09,125.53 166.06,136.82 124.03,145.14C82.39,155.22 34.05,165.12 23.51,167.25C22.35,167.48 21.65,166.57 21.02,165.57Z" style="fill:rgb(255,240,192);fill-rule:nonzero;"/>
        <path d="M100.57,38.44C73.59,41.67 63.47,54.01 39.81,69.63C19.86,82.82 28.36,97.61 17.89,119.08C9.49,136.32 17.13,159.4 21.02,165.58C21.65,166.58 22.35,167.5 23.51,167.26C34.05,165.13 82.38,155.23 124.03,145.15C166.06,136.83 214.09,125.55 224.55,123.06C225.7,122.78 225.95,121.66 226.11,120.49C228.4,102.72 213.77,85.95 209.43,76.97C203.74,65.18 197.51,57.74 191.41,52.76C183.08,45.99 175.9,48.82 170.08,45.54C157.89,38.64 144.09,33.74 135.82,33.9C123.17,34.12 114.68,38.54 100.57,38.44Z" style="fill:none;fill-rule:nonzero;stroke:rgb(24,24,27);stroke-width:9px;"/>
        <path d="M44.77,151.13L26.91,155.12" style="fill:none;fill-rule:nonzero;stroke:rgb(249,207,88);stroke-width:8px;stroke-linecap:round;"/>
        <path d="M44.41,141.68L24.55,144.48" style="fill:none;fill-rule:nonzero;stroke:rgb(249,207,88);stroke-width:8px;stroke-linecap:round;"/>
        <path d="M84.59,69.06L77.8,56.03" style="fill:none;fill-rule:nonzero;stroke:rgb(249,207,88);stroke-width:8px;stroke-linecap:round;"/>
        <path d="M94.05,65.24L88.52,51.7" style="fill:none;fill-rule:nonzero;stroke:rgb(249,207,88);stroke-width:8px;stroke-linecap:round;"/>
        <path d="M54.73,71.04L67.27,82.79" style="fill:none;fill-rule:nonzero;stroke:rgb(249,207,88);stroke-width:8px;stroke-linecap:round;"/>
        <path d="M47.85,78.72L61.26,90.59" style="fill:none;fill-rule:nonzero;stroke:rgb(249,207,88);stroke-width:8px;stroke-linecap:round;"/>
        <path d="M34.24,102.57L46.81,108.24" style="fill:none;fill-rule:nonzero;stroke:rgb(249,207,88);stroke-width:8px;stroke-linecap:round;"/>
        <path d="M30.59,112.77L44.78,117.38" style="fill:none;fill-rule:nonzero;stroke:rgb(249,207,88);stroke-width:8px;stroke-linecap:round;"/>
        <path d="M195.38,117.48L213.25,113.49" style="fill:none;fill-rule:nonzero;stroke:rgb(249,207,88);stroke-width:8px;stroke-linecap:round;"/>
        <path d="M191.69,108.77L210.85,102.86" style="fill:none;fill-rule:nonzero;stroke:rgb(249,207,88);stroke-width:8px;stroke-linecap:round;"/>
        <path d="M124.42,60.17L125.02,45.48" style="fill:none;fill-rule:nonzero;stroke:rgb(249,207,88);stroke-width:8px;stroke-linecap:round;"/>
        <path d="M114.24,60.73L113.47,46.12" style="fill:none;fill-rule:nonzero;stroke:rgb(249,207,88);stroke-width:8px;stroke-linecap:round;"/>
        <path d="M152.28,49.25L145.94,65.21" style="fill:none;fill-rule:nonzero;stroke:rgb(249,207,88);stroke-width:8px;stroke-linecap:round;"/>
        <path d="M161.78,53.26L154.69,69.72" style="fill:none;fill-rule:nonzero;stroke:rgb(249,207,88);stroke-width:8px;stroke-linecap:round;"/>
        <path d="M184.24,69.06L175.28,79.54" style="fill:none;fill-rule:nonzero;stroke:rgb(249,207,88);stroke-width:8px;stroke-linecap:round;"/>
        <path d="M191.89,76.73L181.01,86.95" style="fill:none;fill-rule:nonzero;stroke:rgb(249,207,88);stroke-width:8px;stroke-linecap:round;"/>
        <path d="M133.07,119.39C134.37,125.19 130.13,131.07 123.6,132.53C117.07,133.99 110.74,130.47 109.44,124.67" style="fill:none;fill-rule:nonzero;stroke:rgb(24,24,27);stroke-width:8px;stroke-linecap:round;"/>
        <circle cx="84.58" cy="116.52" r="6.83" style="fill:rgb(24,24,27);"/>
        <circle cx="147.43" cy="102.48" r="6.83" style="fill:rgb(24,24,27);"/>
        <path d="M133.27,33.89C132.52,35.84 129.67,42.33 140.25,48.45C151.08,54.71 188.72,72.82 200.85,61.54C220.52,43.24 192.63,-1.68 180.77,19.38C172.6,33.9 141.74,17.68 133.28,33.9L133.27,33.89Z" style="fill:white;fill-rule:nonzero;stroke:rgb(24,24,27);stroke-width:9px;"/>
    </g>
</svg>
